content/updates/img/illus-april-20.svg

<?xml version="1.0" encoding="UTF-8"?>
<svg width="487px" height="274px" viewBox="0 0 487 274" version="1.1" xmlns="http://www.w3.org/2000/svg" xmlns:xlink="http://www.w3.org/1999/xlink">
    <!-- Generator: Sketch 64 (93537) - https://sketch.com -->
    <title>illus-april-20</title>
    <desc>Created with Sketch.</desc>
    <g id="illus-april-20" stroke="none" stroke-width="1" fill="none" fill-rule="evenodd">
        <path d="M112.418432,146.577742 C114.036316,145.858682 115.481625,142.843665 114.336164,140.585459 C110.141531,132.316274 108.428731,127.820354 106.246744,123.447753 C103.591257,118.127072 99.3092578,106.370089 94.5019849,106.370089 C89.2888031,106.370089 87.1492413,112.354102 85.4234985,117.2642 C83.2447479,123.460696 80.7384662,129.557961 78.4989551,135.908696 C77.6037256,138.448054 76.4553876,142.081462 78.3684454,143.718401 C79.2158569,144.443573 81.7652826,144.933612 83.2965204,143.641462 C85.2142523,142.023578 87.4059454,135.462519 87.4059454,135.462519 L102.50296,135.296776 C102.50296,135.296776 105.937548,142.38095 106.867652,144.136534 C108.309726,146.858894 110.205526,147.561056 112.418432,146.577742 Z M90.0679034,127.40258 C90.9850641,124.884074 93.4834363,117.815359 94.2024957,115.598139 C94.9995734,117.214225 98.5351892,125.243604 99.5537372,127.400783 C97.0970703,127.460824 92.0701245,127.400782 90.0679034,127.40258 Z M123.196828,146.992998 C126.127355,146.809997 126.812979,144.003148 126.977643,142.004163 C127.391462,136.986205 127.37061,134.29117 127.37061,134.29117 C127.37061,134.29117 134.757509,131.865422 137.098766,130.604551 C141.772654,128.087843 146.806071,124.372822 146.206735,117.301949 C145.438419,108.231733 133.952881,105.16782 127.631269,105.077938 C125.848001,105.052771 121.159733,104.598685 119.444056,106.494485 C118.820632,107.183344 118.882471,111.309667 118.910154,113.34892 C119.015497,121.091035 119.088841,135.153323 119.109694,141.179042 C119.122277,144.86602 120.800203,147.142922 123.196828,146.992998 Z M126.983757,125.606426 L126.832755,112.871105 C126.832755,112.871105 130.099802,112.750303 133.099359,113.95329 C135.630089,114.967883 137.970268,116.771644 137.997592,118.650187 C138.031387,120.928167 135.277389,123.116625 132.515841,124.376058 C129.753934,125.635491 126.983757,125.606426 126.983757,125.606426 Z M154.536376,147.000187 C156.423907,147.000187 158.101832,145.082815 158.317191,142.905862 C158.735684,138.669164 158.401321,135.135705 158.510618,131.85967 C162.61501,135.375153 165.411793,138.460997 170.488713,141.790962 C173.164693,143.545826 176.838728,145.518207 179.086508,144.034068 C182.489817,141.787007 180.290573,138.663412 178.673768,137.3878 C172.932437,132.858804 167.792239,128.630014 167.792239,128.630014 C167.792239,128.630014 176.695635,124.948429 176.807808,116.16224 C176.876478,110.807404 174.119963,105.20485 162.128567,105.252364 C158.46424,105.267049 152.907707,105.534539 151.575649,107.321762 C150.216627,109.144938 150.446725,120.873518 150.426951,124.532812 C150.401784,129.203463 150.401784,137.023236 150.543079,142.406475 C150.592335,144.288614 151.929785,147.000187 154.536376,147.000187 Z M158.438712,122.562949 L158.436555,114.062586 C158.436555,114.062586 166.689561,111.526463 167.882481,116.332298 C169.363024,122.293661 158.438712,122.562589 158.438712,122.562949 Z M189.479211,146.999829 C193.380828,147.001985 194.214218,142.406835 194.294034,139.317396 C194.409443,134.846283 194.214578,125.063478 194.126852,119.869711 C194.02151,113.656677 194.583815,104.892419 190.143262,104.137766 C187.944738,103.764214 185.660645,106.019904 185.419401,108.986025 C184.836243,116.15505 185.088274,128.728525 185.247186,135.78178 C185.351449,140.408929 185.621096,146.997672 189.479211,146.999829 Z M208.861158,146.904913 C214.629454,146.535676 221.66653,145.303207 222.744041,144.948711 C225.019146,144.20017 226.105285,142.25835 225.91797,140.365065 C225.648323,137.638751 223.221497,137.099456 221.333606,137.123904 C220.139608,137.139005 209.057102,138.559506 209.057102,138.559506 C208.580725,121.459551 208.582163,120.380961 208.346671,112.776907 C208.191354,107.742771 207.851599,104.562011 202.992553,105.039107 C199.616928,105.370234 199.919293,110.414077 200.038656,114.221857 C200.271631,121.669517 200.190378,131.305634 200.64015,138.479331 C200.870608,142.162714 200.794028,144.205562 202.404722,145.974089 C203.627483,147.316215 207.582311,146.986526 208.861158,146.904913 Z" id="APRIL" fill="#5563B6" fill-rule="nonzero"></path>
        <line x1="275.25" y1="34.3157895" x2="275.25" y2="45.6842105" id="Line-16" stroke="#ACD3EF" stroke-width="3" stroke-linecap="round"></line>
        <line x1="280.676471" y1="40.25" x2="270.323529" y2="40.25" id="Line-16" stroke="#ACD3EF" stroke-width="3" stroke-linecap="round"></line>
        <line x1="165" y1="39.8684211" x2="165" y2="46.8684211" id="Line-16" stroke="#5563B6" stroke-width="2" stroke-linecap="round"></line>
        <line x1="168.823529" y1="43.1184211" x2="161.823529" y2="43.1184211" id="Line-16" stroke="#5563B6" stroke-width="2" stroke-linecap="round"></line>
        <line x1="221" y1="86.8684211" x2="221" y2="93.8684211" id="Line-16" stroke="#5563B6" stroke-width="2" stroke-linecap="round"></line>
        <line x1="224.823529" y1="90.1184211" x2="217.823529" y2="90.1184211" id="Line-16" stroke="#5563B6" stroke-width="2" stroke-linecap="round"></line>
        <line x1="46.25" y1="47.3157895" x2="46.25" y2="58.6842105" id="Line-16" stroke="#ACD3EF" stroke-width="3" stroke-linecap="round"></line>
        <line x1="51.6764706" y1="53.25" x2="41.3235294" y2="53.25" id="Line-16" stroke="#ACD3EF" stroke-width="3" stroke-linecap="round"></line>
        <line x1="206.25" y1="200.315789" x2="206.25" y2="211.684211" id="Line-16" stroke="#ACD3EF" stroke-width="3" stroke-linecap="round"></line>
        <line x1="211.676471" y1="206.25" x2="201.323529" y2="206.25" id="Line-16" stroke="#ACD3EF" stroke-width="3" stroke-linecap="round"></line>
        <line x1="135.5" y1="211.5" x2="135.5" y2="218.5" id="Line-16" stroke="#5563B6" stroke-width="2" stroke-linecap="round"></line>
        <line x1="139.323529" y1="214.75" x2="132.323529" y2="214.75" id="Line-16" stroke="#5563B6" stroke-width="2" stroke-linecap="round"></line>
        <line x1="296" y1="237.868421" x2="296" y2="244.868421" id="Line-16" stroke="#5563B6" stroke-width="2" stroke-linecap="round"></line>
        <line x1="299.823529" y1="241.118421" x2="292.823529" y2="241.118421" id="Line-16" stroke="#5563B6" stroke-width="2" stroke-linecap="round"></line>
        <line x1="78" y1="253.868421" x2="78" y2="260.868421" id="Line-16" stroke="#5563B6" stroke-width="2" stroke-linecap="round"></line>
        <line x1="81.8235294" y1="257.118421" x2="74.8235294" y2="257.118421" id="Line-16" stroke="#5563B6" stroke-width="2" stroke-linecap="round"></line>
        <line x1="99.25" y1="163.315789" x2="99.25" y2="174.684211" id="Line-16" stroke="#ACD3EF" stroke-width="3" stroke-linecap="round"></line>
        <line x1="104.676471" y1="169.25" x2="94.3235294" y2="169.25" id="Line-16" stroke="#ACD3EF" stroke-width="3" stroke-linecap="round"></line>
        <path d="M400.723041,146.683472 C418.699153,149.011977 427.983566,161.241061 431.360986,171.058558 C434.738406,180.876056 432.429654,190.015709 428.658463,197.811954 C424.887273,205.608199 411.482876,222.41559 402.57964,222.463083 C397.872773,222.48813 391.413089,210.756377 380.549633,201.693156 C374.092818,196.306331 361.576273,182.279569 343,159.61287 C352.313004,156.851671 359.237008,154.796486 363.77201,153.447316 C378.98231,148.922228 392.442343,145.610847 400.723041,146.683472 Z" id="Rectangle" stroke="#5563B6" stroke-width="5" fill="#FFFFFF"></path>
        <path d="M315.370421,146.501591 C315.889183,145.985378 314.621261,141.98076 315.370421,141.779101 C316.644742,141.436078 319.57293,143.411487 324.154986,147.705328 C344.777612,163.692324 357.650444,174.99059 362.77348,181.600127 C378.336327,201.678688 379.977917,212.956115 376.434821,214.294327 C372.891724,215.632539 328.323907,161.495725 325.256631,159.480863 C321.251018,156.849617 321.251018,157.375316 317.791862,156.157096 C314.332706,154.938877 312.606844,149.251591 315.370421,146.501591 Z" id="Rectangle" stroke="#5563B6" fill="#5563B6"></path>
        <path d="M406.120945,145.923853 C424.229808,144.496948 436.299822,154.503808 442.013521,163.375316 C447.72722,172.246823 447.72722,181.626887 445.96963,189.998638 C444.21204,198.370389 436.758234,215.453078 428.085119,217.329742 C423.49991,218.321876 412.827664,210.268617 399.99745,203.671117 C388.558781,197.789171 375.068825,193.572451 367.909246,189.998638 C363.843305,187.969062 361.755307,180.537129 359.352048,178.029884 C356.9638,175.538299 354.84645,172.991411 353,170.38922 C361.404134,165.784118 367.651847,162.358093 371.743139,160.111146 C385.465245,152.574932 397.779096,146.581157 406.120945,145.923853 Z" id="Rectangle" stroke="#5563B6" stroke-width="5" fill="#FFFFFF"></path>
        <path d="M343.851423,43 C348.147901,43 353.1253,56.2597814 356.504195,63.6184436 C358.756792,68.5242183 363.588727,75.704751 371,85.1600415 L327.920202,152.876009 C313.798548,127.121161 310.42141,104.003858 317.788788,83.5241016 C328.839856,52.8044663 339.554945,43 343.851423,43 Z" id="Rectangle" stroke="#5563B6" stroke-width="5" fill="#FFFFFF"></path>
        <path d="M349.906292,100.609066 C367.98447,83.6164078 404.503727,63.043728 408.939231,67.2437368 C412.781928,70.8824125 412.781928,78.5620366 412.781928,85.4965637 C412.781928,92.4310908 408.939231,97.5656624 408.939231,104.268115 C408.939231,113.902892 415.79974,125.388024 411.686281,135.973455 C406.44358,149.464836 386.905431,160.936758 353.071833,170.38922 L328,152.876009 C330.552076,129.359819 337.854174,111.937505 349.906292,100.609066 Z" id="Rectangle" stroke="#5563B6" stroke-width="5" fill="#FFFFFF"></path>
        <path d="M282,113.22159 C285.333033,113.467535 287.625403,113.861781 288.87711,114.404328 C296.290004,117.617413 300.549702,121.850599 303.235243,124.472561 C306.600987,127.758623 311.189239,133.699581 317,142.295436" id="Line-22" stroke="#5563B6" stroke-width="2" stroke-linecap="round"></path>
        <path d="M281,115.0741 C284.459257,115.179917 286.852669,115.50011 288.180237,116.034677 C296.04239,119.200507 300.711119,123.643163 303.651574,126.392541 C307.336796,129.838289 312.452938,136.141808 319,145.303098" id="Line-22" stroke="#5563B6" stroke-width="2" stroke-linecap="round"></path>
        <ellipse id="Oval" fill="#5563B6" transform="translate(281.000000, 114.000000) rotate(14.000000) translate(-281.000000, -114.000000) " cx="281" cy="114" rx="1" ry="2"></ellipse>
        <ellipse id="Oval" fill="#5563B6" transform="translate(282.000000, 131.000000) rotate(3.000000) translate(-282.000000, -131.000000) " cx="282" cy="131" rx="1" ry="2"></ellipse>
        <path d="M282,130.191075 C285.40268,129.639153 287.81321,129.498867 289.231591,129.770218 C297.63156,131.37722 303.203453,134.838206 306.701646,136.970373 C311.085872,139.642583 317.518657,144.838997 326,152.559615" id="Line-22" stroke="#5563B6" stroke-width="2" stroke-linecap="round"></path>
        <path d="M282,131.898631 C285.317041,131.238662 287.676312,131.021682 289.077814,131.247689 C297.377823,132.586157 302.973301,135.867559 306.484771,137.887004 C310.885638,140.417939 317.390714,145.406291 326,152.852059" id="Line-22" stroke="#5563B6" stroke-width="2" stroke-linecap="round"></path>
        <path d="M352,158.268396 C365.40174,156.017982 375.090026,153.035565 381.064857,149.321146 C387.039688,145.606727 394.684736,138.85098 404,129.053904" id="Line-23" stroke="#E1F2FF" stroke-width="4" stroke-linecap="round"></path>
        <path d="M399,191.620707 C405.149451,193.739888 409.256862,195.374821 411.322232,196.525506 C419.725481,201.207229 423.136251,204.644262 424.905649,204.199771 C426.513286,203.795917 431.431174,199.998973 434.163771,192.969929 C435.086279,190.596966 435.698355,186.214899 436,179.823727" id="Line-23" stroke="#E1F2FF" stroke-width="4" stroke-linecap="round"></path>
        <path d="M344.427971,72.7742748 C344.55642,72.8853929 344.638995,72.9711263 344.667485,72.9984269 C344.669417,73.0036954 344.667002,72.9936373 344.667485,72.9984269 C344.667485,72.9993848 344.667968,72.9979479 344.667968,72.9979479 C341.548966,71.3244705 339.425688,72.5980184 337.015089,72.2977121 C336.98177,72.287654 336.944104,72.2795117 336.901127,72.2728063 C336.847526,72.265143 336.792959,72.254127 336.739841,72.2411951 C336.104837,72.0831391 335.509431,71.5529332 334.975835,70.7937856 C334.972937,70.789954 334.970523,70.7861223 334.967626,70.7818117 C334.922234,70.7195472 334.879256,70.65393 334.836279,70.5887918 C334.836279,70.5887918 334.835796,70.586876 334.834347,70.586397 C334.756119,70.4656998 334.678373,70.3378181 334.602076,70.2080206 C334.59435,70.1946098 334.585658,70.181678 334.577931,70.1682672 C334.558133,70.1313874 334.537851,70.0945077 334.517087,70.0585859 C334.49584,70.0207483 334.474592,69.9838685 334.454311,69.9469888 C334.434029,69.9081933 334.414231,69.8708346 334.394915,69.8334759 C334.373668,69.7942014 334.353869,69.7554058 334.333105,69.7161313 C334.319101,69.6897887 334.305097,69.6610512 334.29061,69.6323138 C333.752668,68.5632807 333.315651,67.2791957 333.003219,65.9994213 C333.003219,65.9994213 332.995976,65.9869684 333.003219,65.9994213 C334.175199,66.6330821 335.394502,67.1537088 336.423546,67.4410833 C337.663131,67.7883275 339.215147,67.9339306 340.705353,67.8644817 C341.161686,66.4568257 341.425346,64.9342199 341.412308,63.6563614 C341.400235,62.5878072 341.218668,61.2946221 340.90189,60 C340.998952,60.0522064 341.095047,60.1063286 341.192109,60.1594928 C341.220116,60.1757774 341.248607,60.1925409 341.277581,60.2093044 C341.346151,60.2481 341.414722,60.2864166 341.482327,60.3276069 C341.513715,60.3448494 341.545586,60.3640077 341.576491,60.382687 C341.645062,60.4233984 341.712184,60.4636308 341.779789,60.5048212 C341.806831,60.5215847 341.834838,60.5383482 341.862363,60.5546328 C341.947352,60.607797 342.031859,60.6604824 342.115399,60.7141256 C342.124091,60.7189152 342.132783,60.7241837 342.140509,60.7299312 C342.238054,60.7907588 342.334149,60.8544601 342.429762,60.9176825 C342.437488,60.9219931 342.444249,60.9277406 342.451975,60.9325302 C342.538413,60.9900051 342.621953,61.047001 342.706459,61.1049549 C342.724326,61.1164499 342.740745,61.1293817 342.758129,61.1403977 C342.834909,61.193562 342.910723,61.2476842 342.98702,61.3018064 C343.001024,61.3128224 343.015027,61.3238385 343.03048,61.3343755 C343.117884,61.3975979 343.204321,61.4608203 343.28931,61.5250006 C343.28931,61.5250006 343.290276,61.5259585 343.291242,61.5259585 C343.562145,61.7323892 343.820975,61.9416936 344.064353,62.1538718 C344.067733,62.1562665 344.07063,62.1591403 344.07401,62.1610561 C344.478674,62.5174005 344.837946,62.8804502 345.133476,63.2425421 C345.176454,63.2957064 345.217983,63.3488707 345.258063,63.401556 C345.259511,63.4039508 345.261926,63.4049087 345.262892,63.4068245 L345.262892,63.4077824 C345.300074,63.4556782 345.335808,63.5040529 345.369128,63.5509907 L345.369611,63.5524276 C345.371059,63.5538645 345.372025,63.5562592 345.372991,63.5576961 C345.410174,63.6089446 345.445908,63.660193 345.478744,63.7119204 L345.479227,63.7119204 C345.483573,63.7191048 345.486954,63.7253312 345.491783,63.7329946 C345.492265,63.7339525 345.493231,63.7334735 345.493231,63.7344314 C345.536692,63.8005276 345.577737,63.8675816 345.615403,63.9322409 C345.621198,63.9442148 345.626992,63.9547519 345.63327,63.96481 C345.635685,63.9686416 345.637133,63.9729522 345.640996,63.9772629 C345.682525,64.0519802 345.721639,64.1266976 345.756408,64.2023729 C345.782001,64.2541003 345.804214,64.3063066 345.825944,64.358513 C345.834636,64.381024 345.842362,64.4025771 345.850572,64.4241302 C345.863127,64.4566993 345.87375,64.4883105 345.885823,64.5208796 C345.893549,64.5438696 345.899827,64.5673385 345.90707,64.5922443 C345.916728,64.6214607 345.924937,64.6521139 345.933146,64.6818093 C345.939424,64.7052782 345.944736,64.7282682 345.949565,64.752695 C345.956808,64.7823904 345.963086,64.8120857 345.96888,64.8422601 C345.972743,64.8647711 345.976124,64.8887189 345.979987,64.9117089 C345.984333,64.9423622 345.98723,64.9739734 345.991576,65.0036687 C345.993991,65.0252218 345.995439,65.0467749 345.996888,65.0673701 C345.99882,65.101855 345.999302,65.135382 345.999785,65.1708249 C345.999785,65.1861515 346.000268,65.2043519 345.999785,65.2215944 C345.999302,65.2733218 345.995439,65.3240913 345.989645,65.3739029 C345.986264,65.4083878 345.984333,65.4380832 345.984333,65.4658627 C345.657415,67.8587342 343.868781,69.584418 344.667485,72.9984269" id="Fill-583" fill="#9452BA"></path>
    </g>
</svg>

<svg width="487" height="274" xmlns="http://www.w3.org/2000/svg">
  <g fill="none" fill-rule="evenodd">
    <path d="M112.418 146.578c1.618-.72 3.064-3.734 1.918-5.993-4.194-8.269-5.907-12.765-8.09-17.137-2.655-5.32-6.937-17.078-11.744-17.078-5.213 0-7.353 5.984-9.079 10.894-2.178 6.197-4.685 12.294-6.924 18.645-.895 2.54-2.044 6.172-.13 7.81.847.725 3.396 1.215 4.928-.078 1.917-1.617 4.109-8.178 4.109-8.178l15.097-.166s3.435 7.084 4.365 8.84c1.442 2.722 3.338 3.424 5.55 2.44zm-22.35-19.175c.917-2.519 3.415-9.588 4.134-11.805.798 1.616 4.333 9.646 5.352 11.803-2.457.06-7.484 0-9.486.002zm33.129 19.59c2.93-.183 3.616-2.99 3.78-4.989.414-5.018.394-7.713.394-7.713s7.387-2.426 9.728-3.686c4.674-2.517 9.707-6.232 9.108-13.303-.769-9.07-12.254-12.134-18.576-12.224-1.783-.025-6.471-.48-8.187 1.416-.623.69-.562 4.816-.534 6.855.105 7.742.179 21.804.2 27.83.012 3.687 1.69 5.964 4.087 5.814zm3.787-21.387l-.151-12.735s3.267-.12 6.266 1.082c2.531 1.015 4.871 2.819 4.899 4.697.033 2.278-2.72 4.467-5.482 5.726-2.762 1.26-5.532 1.23-5.532 1.23zM154.536 147c1.888 0 3.566-1.917 3.781-4.094.419-4.237.084-7.77.194-11.046 4.104 3.515 6.9 6.601 11.978 9.931 2.676 1.755 6.35 3.727 8.598 2.243 3.403-2.247 1.204-5.37-.413-6.646-5.742-4.53-10.882-8.758-10.882-8.758s8.904-3.682 9.016-12.468c.068-5.355-2.688-10.957-14.68-10.91-3.664.015-9.22.283-10.552 2.07-1.36 1.823-1.13 13.552-1.149 17.21-.025 4.671-.025 12.491.116 17.874.05 1.883 1.387 4.594 3.993 4.594zm3.903-24.437l-.002-8.5s8.253-2.537 9.445 2.27c1.481 5.96-9.443 6.23-9.443 6.23zM189.479 147c3.902.002 4.735-4.593 4.815-7.683.115-4.47-.08-14.254-.167-19.447-.105-6.213.457-14.978-3.984-15.732-2.198-.374-4.482 1.882-4.724 4.848-.583 7.169-.33 19.743-.172 26.796.104 4.627.374 11.216 4.232 11.218zm19.382-.095c5.768-.37 12.806-1.602 13.883-1.956 2.275-.749 3.361-2.69 3.174-4.584-.27-2.726-2.697-3.266-4.584-3.241-1.194.015-12.277 1.436-12.277 1.436-.476-17.1-.475-18.179-.71-25.783-.156-5.034-.495-8.215-5.354-7.738-3.376.331-3.074 5.375-2.954 9.183.233 7.448.151 17.084.601 24.257.23 3.684.154 5.727 1.765 7.495 1.222 1.342 5.177 1.013 6.456.93z" fill="#5563B6" fill-rule="nonzero"/>
    <path stroke="#ACD3EF" stroke-width="3" stroke-linecap="round" d="M275.25 34.316v11.368M280.676 40.25h-10.352"/>
    <path stroke="#5563B6" stroke-width="2" stroke-linecap="round" d="M165 39.868v7M168.824 43.118h-7M221 86.868v7M224.824 90.118h-7"/>
    <path stroke="#ACD3EF" stroke-width="3" stroke-linecap="round" d="M46.25 47.316v11.368M51.676 53.25H41.324M206.25 200.316v11.368M211.676 206.25h-10.352"/>
    <path stroke="#5563B6" stroke-width="2" stroke-linecap="round" d="M135.5 211.5v7M139.324 214.75h-7M296 237.868v7M299.824 241.118h-7M78 253.868v7M81.824 257.118h-7"/>
    <path stroke="#ACD3EF" stroke-width="3" stroke-linecap="round" d="M99.25 163.316v11.368M104.676 169.25H94.324"/>
    <path d="M400.723 146.683c17.976 2.329 27.26 14.558 30.638 24.376 3.377 9.817 1.069 18.957-2.703 26.753-3.77 7.796-17.175 24.604-26.078 24.651-4.707.025-11.167-11.707-22.03-20.77-6.457-5.387-18.974-19.413-37.55-42.08 9.313-2.761 16.237-4.817 20.772-6.166 15.21-4.525 28.67-7.836 36.951-6.764z" stroke="#5563B6" stroke-width="5" fill="#FFF"/>
    <path d="M315.37 146.502c.52-.517-.749-4.521 0-4.723 1.275-.343 4.203 1.632 8.785 5.926 20.623 15.987 33.495 27.286 38.618 33.895 15.563 20.079 17.205 31.356 13.662 32.694-3.543 1.339-48.111-52.798-51.178-54.813-4.006-2.631-4.006-2.106-7.465-3.324-3.46-1.218-5.185-6.905-2.422-9.655z" stroke="#5563B6" fill="#5563B6"/>
    <path d="M406.12 145.924c18.11-1.427 30.18 8.58 35.894 17.451 5.713 8.872 5.713 18.252 3.956 26.624-1.758 8.371-9.212 25.454-17.885 27.33-4.585.993-15.257-7.06-28.088-13.658C388.56 197.79 375.07 193.572 367.91 190c-4.066-2.03-6.154-9.462-8.557-11.97-2.388-2.49-4.506-5.038-6.352-7.64 8.404-4.605 14.652-8.03 18.743-10.278 13.722-7.536 26.036-13.53 34.378-14.187zM343.851 43c4.297 0 9.274 13.26 12.653 20.618 2.253 4.906 7.085 12.087 14.496 21.542l-43.08 67.716c-14.121-25.755-17.499-48.872-10.131-69.352C328.839 52.804 339.555 43 343.85 43z" stroke="#5563B6" stroke-width="5" fill="#FFF"/>
    <path d="M349.906 100.61c18.078-16.994 54.598-37.566 59.033-33.366 3.843 3.638 3.843 11.318 3.843 18.253 0 6.934-3.843 12.069-3.843 18.771 0 9.635 6.86 21.12 2.747 31.705-5.242 13.492-24.78 24.964-58.614 34.416L328 152.876c2.552-23.516 9.854-40.938 21.906-52.267z" stroke="#5563B6" stroke-width="5" fill="#FFF"/>
    <path d="M282 113.222c3.333.246 5.625.64 6.877 1.182 7.413 3.213 11.673 7.447 14.358 10.069 3.366 3.286 7.954 9.227 13.765 17.822" stroke="#5563B6" stroke-width="2" stroke-linecap="round"/>
    <path d="M281 115.074c3.46.106 5.853.426 7.18.96 7.862 3.167 12.531 7.61 15.472 10.359 3.685 3.445 8.8 9.749 15.348 18.91" stroke="#5563B6" stroke-width="2" stroke-linecap="round"/>
    <ellipse fill="#5563B6" transform="rotate(14 281 114)" cx="281" cy="114" rx="1" ry="2"/>
    <ellipse fill="#5563B6" transform="rotate(3 282 131)" cx="282" cy="131" rx="1" ry="2"/>
    <path d="M282 130.191c3.403-.552 5.813-.692 7.232-.42 8.4 1.606 13.971 5.067 17.47 7.2 4.384 2.672 10.817 7.868 19.298 15.589" stroke="#5563B6" stroke-width="2" stroke-linecap="round"/>
    <path d="M282 131.899c3.317-.66 5.676-.877 7.078-.651 8.3 1.338 13.895 4.62 17.407 6.639 4.4 2.53 10.906 7.52 19.515 14.965" stroke="#5563B6" stroke-width="2" stroke-linecap="round"/>
    <path d="M352 158.268c13.402-2.25 23.09-5.232 29.065-8.947 5.975-3.714 13.62-10.47 22.935-20.267M399 191.62c6.15 2.12 10.257 3.755 12.322 4.906 8.403 4.681 11.814 8.118 13.584 7.674 1.607-.404 6.525-4.201 9.258-11.23.922-2.373 1.534-6.755 1.836-13.146" stroke="#E1F2FF" stroke-width="4" stroke-linecap="round"/>
    <path d="M344.428 72.774c.128.111.211.197.24.224.001.006-.001-.004 0 0 0 .001 0 0 0 0-3.119-1.674-5.242-.4-7.653-.7a.848.848 0 00-.114-.025 1.712 1.712 0 01-.161-.032c-.635-.158-1.23-.688-1.764-1.447l-.008-.012c-.046-.062-.089-.128-.132-.193 0 0 0-.002-.002-.003-.078-.12-.156-.248-.232-.378l-.024-.04a4.005 4.005 0 00-.06-.11l-.064-.111-.06-.114-.06-.117c-.015-.026-.029-.055-.043-.084-.538-1.069-.975-2.353-1.288-3.633 0 0-.007-.012 0 0 1.172.634 2.392 1.155 3.42 1.442 1.24.347 2.792.493 4.282.423.457-1.407.72-2.93.707-4.208-.012-1.068-.193-2.361-.51-3.656.097.052.193.106.29.16l.086.05c.068.038.137.076.204.118a20.647 20.647 0 01.38.227c.085.053.17.105.253.16.01.004.018.01.026.015.097.06.193.124.289.188l.022.015c.086.057.17.114.254.172l.052.035.229.162.043.032a15.632 15.632 0 01.261.192c.271.206.53.416.773.628l.01.007c.405.356.764.72 1.06 1.082.042.053.084.106.124.159l.005.005c.037.049.073.097.106.144v.001l.004.006c.037.05.073.102.106.154l.013.021.001.001a4.315 4.315 0 01.14.23c.003.005.004.009.008.013a3.307 3.307 0 01.185.382l.025.065.035.097c.008.023.014.046.021.071.01.03.018.06.026.09l.017.07.019.09.011.07c.004.03.007.062.012.092l.005.063.003.104v.05c0 .052-.005.103-.01.153a.944.944 0 00-.006.092c-.327 2.393-2.115 4.118-1.317 7.532" fill="#9452BA"/>
  </g>
</svg>
